webdev/02-express/images/mvc.svg

<svg xmlns="http://www.w3.org/2000/svg" width="323" height="283"><g transform="translate(.5 .5)"><ellipse cx="61" cy="61" rx="60" ry="60" fill="#dae8fc" stroke="#6c8ebf" pointer-events="none"/><switch transform="translate(30.5 48.5)"><foreignObject pointer-events="all" width="60" height="24" requiredFeatures="http://www.w3.org/TR/SVG11/feature#Extensibility" overflow="visible"><div xmlns="http://www.w3.org/1999/xhtml" style="line-height:1.2;vertical-align:top;width:60px;white-space:nowrap;word-wrap:normal;text-align:center" display="inline-block" font-size="12" font-family="Helvetica" color="#000"><div xmlns="http://www.w3.org/1999/xhtml" style="text-align:inherit" display="inline-block" text-decoration="inherit"><font font-size="22">Model</font></div></div></foreignObject><text x="30" y="18" text-anchor="middle" font-size="12" font-family="Helvetica">[Not supported by viewer]</text></switch><ellipse cx="261" cy="61" rx="60" ry="60" fill="#ffe6cc" stroke="#d79b00" pointer-events="none"/><switch transform="translate(236.5 48.5)"><foreignObject pointer-events="all" width="48" height="24" requiredFeatures="http://www.w3.org/TR/SVG11/feature#Extensibility" overflow="visible"><div xmlns="http://www.w3.org/1999/xhtml" style="line-height:1.2;vertical-align:top;width:48px;white-space:nowrap;word-wrap:normal;text-align:center" display="inline-block" font-size="12" font-family="Helvetica" color="#000"><div xmlns="http://www.w3.org/1999/xhtml" style="text-align:inherit" display="inline-block" text-decoration="inherit"><font font-size="22">View</font></div></div></foreignObject><text x="24" y="18" text-anchor="middle" font-size="12" font-family="Helvetica">[Not supported by viewer]</text></switch><ellipse cx="161" cy="221" rx="60" ry="60" fill="#d5e8d4" stroke="#82b366" pointer-events="none"/><switch transform="translate(112.5 208.5)"><foreignObject pointer-events="all" width="96" height="24" requiredFeatures="http://www.w3.org/TR/SVG11/feature#Extensibility" overflow="visible"><div xmlns="http://www.w3.org/1999/xhtml" style="line-height:1.2;vertical-align:top;width:96px;white-space:nowrap;word-wrap:normal;text-align:center" display="inline-block" font-size="12" font-family="Helvetica" color="#000"><div xmlns="http://www.w3.org/1999/xhtml" style="text-align:inherit" display="inline-block" text-decoration="inherit"><font font-size="22">Controller</font></div></div></foreignObject><text x="48" y="18" text-anchor="middle" font-size="12" font-family="Helvetica">[Not supported by viewer]</text></switch><path d="M93 116l28.57 44.9" fill="none" stroke="#f66" stroke-width="4" stroke-miterlimit="10" pointer-events="none"/><path d="M125.6 167.23l-9.59-5.76 5.56-.57 2.88-4.79z" fill="#f66" stroke="#f66" stroke-width="4" stroke-miterlimit="10" pointer-events="none"/><path d="M195 169l29.61-46.88" fill="none" stroke="#f66" stroke-width="4" stroke-miterlimit="10" pointer-events="none"/><path d="M228.61 115.78l-1.11 11.13-2.89-4.79-5.57-.55z" fill="#f66" stroke="#f66" stroke-width="4" stroke-miterlimit="10" pointer-events="none"/></g></svg>

<!DOCTYPE svg PUBLIC "-//W3C//DTD SVG 1.1//EN" "http://www.w3.org/Graphics/SVG/1.1/DTD/svg11.dtd">
<svg xmlns="http://www.w3.org/2000/svg" xmlns:xlink="http://www.w3.org/1999/xlink" width="323px" height="283px" version="1.1" content="&lt;mxfile userAgent=&quot;Mozilla/5.0 (Macintosh; Intel Mac OS X 10_13_3) AppleWebKit/537.36 (KHTML, like Gecko) Chrome/65.0.3310.0 Safari/537.36&quot; version=&quot;6.0.1.8&quot; editor=&quot;www.draw.io&quot; type=&quot;browser&quot;&gt;&lt;diagram&gt;xVZdk5owFP01PrYDQQI+7tq1fenMzjjTj8cIF8hsNDbEBfvreyEBDGhHO+vWB+We+5Xcc0KcBctt/VmxffFVpiBmxEvrWfBpRkgUU/xugKMBQn9hgFzx1ED+AKz5b7CgZ9EDT6F0ArWUQvO9CyZyt4NEOxhTSlZuWCaF23XPcpgA64SJKfqdp7owaBx6A/4FeF50nX3PejYsecmVPOxsvxkJsvZj3FvW1bLxZcFSWZ1AwdMsWCoptXna1ksQzWi7sZm81QVvv24FO31NAjEJr0wcoFsxFZj6mEmsgAvURzsU+usgO8eHsqXsAQMI2deDE5/y5tcqwpTC9qaa8dmd94UJLgmJReOxKriG9Z4ljadCaSFW6K1Ay29acyGWUkjV5gUpgzhLEC+1ki9w4qFJDJus7/UKSkN9cUR+P3jUM8gtaHXEkC6h48pq2afWrgZl9DHFqSo6kFk15n3tgRF8sKScJyi4E0HfOFT35ifLgCZn+UmjxQaPzJvwE/xXfuZ34meJQUoKAerupyiEOJ2fYykmm4DSt2GJjFjqWXsXlsIzLI3Ht0sfmpsDrUSwsuSJO7XJdFYrStvpGE93TzSTxJmo4w80vI94a3TAzxbw4qgDnkFx3Ao0BZvDADXXJiuKrGlyFtSa4wyzC0hHt1kpDyoB5w2vmcpBO5q9gTyfOOSRKJyQF57hLvwLdbbZs+TtMek70VGnUQmzNZt1erGNC4VjvcVuITOQSaFWSf0ErhIXfWdxDSqJXZl4NLygk1NBhsQV5IKElwR5hbzmU3kFt78bRqTH83vJ61KnW+UVUFdeE53+s7zQHP7+mfDhL3bw9Ac=&lt;/diagram&gt;&lt;/mxfile&gt;"><defs/><g transform="translate(0.5,0.5)"><ellipse cx="61" cy="61" rx="60" ry="60" fill="#dae8fc" stroke="#6c8ebf" pointer-events="none"/><g transform="translate(30.5,48.5)"><switch><foreignObject style="overflow:visible;" pointer-events="all" width="60" height="24" requiredFeatures="http://www.w3.org/TR/SVG11/feature#Extensibility"><div xmlns="http://www.w3.org/1999/xhtml" style="display: inline-block; font-size: 12px; font-family: Helvetica; color: rgb(0, 0, 0); line-height: 1.2; vertical-align: top; width: 60px; white-space: nowrap; word-wrap: normal; text-align: center;"><div xmlns="http://www.w3.org/1999/xhtml" style="display:inline-block;text-align:inherit;text-decoration:inherit;"><font style="font-size: 22px">Model</font></div></div></foreignObject><text x="30" y="18" fill="#000000" text-anchor="middle" font-size="12px" font-family="Helvetica">[Not supported by viewer]</text></switch></g><ellipse cx="261" cy="61" rx="60" ry="60" fill="#ffe6cc" stroke="#d79b00" pointer-events="none"/><g transform="translate(236.5,48.5)"><switch><foreignObject style="overflow:visible;" pointer-events="all" width="48" height="24" requiredFeatures="http://www.w3.org/TR/SVG11/feature#Extensibility"><div xmlns="http://www.w3.org/1999/xhtml" style="display: inline-block; font-size: 12px; font-family: Helvetica; color: rgb(0, 0, 0); line-height: 1.2; vertical-align: top; width: 48px; white-space: nowrap; word-wrap: normal; text-align: center;"><div xmlns="http://www.w3.org/1999/xhtml" style="display:inline-block;text-align:inherit;text-decoration:inherit;"><font style="font-size: 22px">View</font></div></div></foreignObject><text x="24" y="18" fill="#000000" text-anchor="middle" font-size="12px" font-family="Helvetica">[Not supported by viewer]</text></switch></g><ellipse cx="161" cy="221" rx="60" ry="60" fill="#d5e8d4" stroke="#82b366" pointer-events="none"/><g transform="translate(112.5,208.5)"><switch><foreignObject style="overflow:visible;" pointer-events="all" width="96" height="24" requiredFeatures="http://www.w3.org/TR/SVG11/feature#Extensibility"><div xmlns="http://www.w3.org/1999/xhtml" style="display: inline-block; font-size: 12px; font-family: Helvetica; color: rgb(0, 0, 0); line-height: 1.2; vertical-align: top; width: 96px; white-space: nowrap; word-wrap: normal; text-align: center;"><div xmlns="http://www.w3.org/1999/xhtml" style="display:inline-block;text-align:inherit;text-decoration:inherit;"><font style="font-size: 22px">Controller</font></div></div></foreignObject><text x="48" y="18" fill="#000000" text-anchor="middle" font-size="12px" font-family="Helvetica">[Not supported by viewer]</text></switch></g><path d="M 93 116 L 121.57 160.9" fill="none" stroke="#ff6666" stroke-width="4" stroke-miterlimit="10" pointer-events="none"/><path d="M 125.6 167.23 L 116.01 161.47 L 121.57 160.9 L 124.45 156.11 Z" fill="#ff6666" stroke="#ff6666" stroke-width="4" stroke-miterlimit="10" pointer-events="none"/><path d="M 195 169 L 224.61 122.12" fill="none" stroke="#ff6666" stroke-width="4" stroke-miterlimit="10" pointer-events="none"/><path d="M 228.61 115.78 L 227.5 126.91 L 224.61 122.12 L 219.04 121.57 Z" fill="#ff6666" stroke="#ff6666" stroke-width="4" stroke-miterlimit="10" pointer-events="none"/></g></svg>
